!!!!SEGMENT: pl-wumfc--r282--003-007_paderewski-ignacy-jan--exercises-3-exercise-7.krn
!!!cenid: 18xx:3202
!!!COM: Paderewski, Ignacy Jan
!!!COM-rismid: pe30029943
!!!CDT: 1860/11/18-1941/06/29
!!!CNT: Polish
!!!GTL: [Exercises 3]
!!!OTL: [Exercise] 7
!!!OMV: 007
!!!PDT:
!!!AGN:
!!!SMS-siglum: PL-Wumfc
!!!SMS-shelfmark: R282
!!!SMS-shelfwork: 003-007 G
!!!SMS-variant:
!!!SMS-altvar:
!!!NIFC-rismid: 1001158933
!!!URL-scan: http://repozytorium.nifc.pl/skany/pl-wumfc--r282
!!!ONB-nifc: UWAGA: druga grupa ćwiczeń od skanu 0011, prawa strona, 3 system. Nr 003 i 004 nienumerowane – skan 0012, lewa strona. Nr 010 nienumerowany – skan 0014, 3 pierwsze systemy
!!!key: F
**kern	**kern
*part2	*part1
*staff2	*staff1
*I"Fortepian	*I"Fortepian
*Ipiano	*Ipiano
*ICklav	*ICklav
*IGsolo	*IGsolo
*clefF4	*clefG2
*k[b-]	*k[b-]
*F:	*F:
*M4/4	*M4/4
*met(c)	*met(c)
=1	=1
*^	*^
!	!	!LO:TX:t=P:problem=brak wpisanego metrum	!
!	!	!LO:TX:a:t=C.f	!
4A/	1AA	1f	1f
4B-/	.	.	.
4A/	.	.	.
4G/	.	.	.
=2	=2	=2	=2
4F/	1F	1a	1c
4G/	.	.	.
4A/	.	.	.
4G/	.	.	.
=3	=3	=3	=3
4F/	1AA	1cc	1f
4G/	.	.	.
4A/	.	.	.
4Bn/	.	.	.
!!LO:LB:g=original
=4	=4	=4	=4
4c/	1A	1a	1e
4d/	.	.	.
4c/	.	.	.
4A/	.	.	.
=5	=5	=5	=5
4B-/	1G	1b-	1g
4c/	.	.	.
4d/	.	.	.
4e/	.	.	.
=6	=6	=6	=6
4f/	1D	1a	1f
4e/	.	.	.
4d/	.	.	.
4A/	.	.	.
=7	=7	=7	=7
4G/	1G	1bn	1d
4A/	.	.	.
4G/	.	.	.
4d/	.	.	.
=8	=8	=8	=8
1c;	1C	1cc;	1e
=9	=9	=9	=9
4D/	1BB-	1dd	1f
4C/	.	.	.
4D/	.	.	.
4E/	.	.	.
=10	=10	=10	=10
4F/	1AA	1cc	1f
4G/	.	.	.
4A/	.	.	.
4B-/	.	.	.
!!pagebreak:original
=11	=11	=11	=11
4c/	1AA	1a	1e
4Bn/	.	.	.
4A/	.	.	.
4c/	.	.	.
=12	=12	=12	=12
4d/	1BB-	1g	1d
4c/	.	.	.
4B-X/	.	.	.
4G/	.	.	.
=13	=13	=13	=13
4A/	1D	1f	1f
4G/	.	.	.
4A/	.	.	.
4B-/	.	.	.
=14	=14	=14	=14
4c/	1C	1a	1e
4B-/	.	.	.
4A/	.	.	.
4B-/	.	.	.
=15	=15	=15	=15
4c/	1CC	1g	1e
4B-/	.	.	.
4c/	.	.	.
4G/	.	.	.
=16	=16	=16	=16
1A;	1FF	1f;	1c
=17	=17	=17	=17
4c/	1C	1g	1e
4d/	.	.	.
4c/	.	.	.
4B-/	.	.	.
!!LO:LB:g=original
=18	=18	=18	=18
4A/	1F	1a	1f
4G/	.	.	.
4A/	.	.	.
4F/	.	.	.
=19	=19	=19	=19
4A/	1FF	1a	1d
4G/	.	.	.
4F/	.	.	.
4A/	.	.	.
=20	=20	=20	=20
4B-/	1GG	1g	1d
4A/	.	.	.
4G/	.	.	.
4F/	.	.	.
=21	=21	=21	=21
4E/	1AA	1cc	1c
4C/@	.	.	.
4c/	.	.	.
4Bn/	.	.	.
=22	=22	=22	=22
4A/	1C	1cc	1g
4Bn/	.	.	.
2c/@	.	.	.
=23	=23	=23	=23
4G/	1GG	1bn	1d
4A/	.	.	.
4G/	.	.	.
4F/	.	.	.
=24	=24	=24	=24
1E;	1C	1cc;	1c
=25	=25	=25	=25
4F/	1D	1a	1d
4E/	.	.	.
4F/	.	.	.
4A/	.	.	.
!!LO:LB:g=original
=26	=26	=26	=26
4G/	1GG	1b-	1d
4A/	.	.	.
4B- 4G/	.	.	.
4G/	.	.	.
=27	=27	=27	=27
4c/	1FF	1a	1f
4d/	.	.	.
4c/	.	.	.
4A/	.	.	.
=28	=28	=28	=28
4c/	1C	1g	1e
4d/	.	.	.
4c/	.	.	.
4B-/	.	.	.
=29	=29	=29	=29
4A/	1D	1f	1f
4G/	.	.	.
4F/	.	.	.
4A/	.	.	.
=30	=30	=30	=30
4B-/	1BB-	1f	1d
4c/	.	.	.
4B-/	.	.	.
4A/	.	.	.
=31	=31	=31	=31
4G/	1C	1e	1c
4A/	.	.	.
4G/	.	.	.
4c/	.	.	.
=32	=32	=32	=32
1A	1FF	1f	1c
*v	*v	*	*
*	*v	*v
==	==
*-	*-
!!!system-decoration: [(s1,s2)]
!!!RDF**kern: @ = marked note, color=grey
!!!AIN: 2 piano
!!!ENC: Filip Voros
!!!END: 2021-11-13
!!!ENC: Marta Lawrence
!!!END: 2021-11-15
